X:1
Q:1/4=90
L:1/8
M:1/4
K:C clef=G2
V:1
%%MIDI program 60
^D7/16zz/2|z^A,7/16G7/16|z2|z^D7/16^A7/16|
zG7/16^d7/16|z^A7/16g/2-|g7/16g7/16g7/16g/2-|g7/16g15/16[^D-]/2|
[^D-]2|[^D-]2|[^D-]2|[^D-]2|
[^D-]2|[^D-]2|[^D-]2|[^D-]2|
[^D-]2|[^D-]2|[^D-]2|[^D-]2|
[^D-]2|[^D-]2|[^D-]2|[^D-]2|
[^D-]2|[^D-]2|[^D-]2|[^D-]2|
[^D-]2|[^D-]2|[^D-]2|[^D-]2|
[^D-]2|[^D-]2|[^D-]2|[^D-]2|
[^D-]2|[^D-]2|[^D-]2|[^D]3/2[^D-c-]/2|
[^D-c-]2[^Dc]/2|z/2[^D-c][^D-^d-]/2|[^D^d]3/2[^D-c-]/2|[^Dc]3/2[^D-^A-]/2|
[^D^A]3/2[^D-G-]/2|[^DG]3/2[^D-^A-]/2|[^D-^A-]2|[^D^A]3/2[^D-G-]/2|
[^D-G-]2|[^DG]3/2[^D-F-]/2|[^DF]3/2[^D-]/2|[^D]3/2^A/2-|
^A2-|^A14/4|z2|z2|
z2|z2|z2|z2|
z2|z2|z2|z2|
z2|z2|z2|z2|
z2|z2|z2|z2|
zz/2
L:1/8
M:1/4
K:C clef=G2
V:2
%%MIDI program 59
z2|z2|z2|z2|
z2|z2|z2|z2|
z2|z2|zz/2G/2-|G3/2^A/2-|
^A3/2c/2-|c3/2^A/2-|^A2-|^A3/2z/2|
z2|z2|z2|z2|
z2|z2|z2|z2|
z2|z2|z2|z2|
z2|z2|z2|z2|
z2|z2|z2|z2|
z2|z2|z2|z2|
z2|z2|z2|z2|
z2|z2|z2|z2|
z2|z2|z2|z2|
z2|z2|z2|z2|
z2|z2|z2|z2|
z2|z2|z2|z2|
z2|z2|z2|z2|
z2|z2|z2|z2|
zz/2
L:1/8
M:1/4
K:C clef=G2
V:3
%%MIDI program 68
z2|z2|z2|z2|
z2|z2|z2|z2|
z2|z2|z2|z2|
z2|z2|z2|z2|
z2|zz/2F/2-|F3/2^D/2-|^D3/2F/2-|
F2-|F2-|F3/2z/2|z2|
z2|z2|z2|z2|
z2|z2|z2|z2|
z2|z2|z2|z2|
z2|z2|z2|z2|
z2|z2|z2|z2|
z2|z2|z2|z2|
z2|z2|z2|z2|
z2|z2|z2|z2|
z2|z2|z2|z2|
z2|z2|z2|z2|
z2|z2|z2|z2|
z2|z2|z2|z2|
zz/2
L:1/8
M:1/4
K:C clef=G2
V:4
%%MIDI program 48
z2|z2|z2|z2|
z2|z2|z2|z2|
z2|z2|z2|z2|
z2|z2|z2|z2|
z2|z2|z2|z2|
z2|z2|z2|zz/2G/2-|
G14/4|zz/2F/2-|F3/2F/2-|F3/2^G/2-|
^G3/2c/2-|c3/2[^A-]/2|[^A-]2|[^A-]2|
[^A-]2|[^A-]2|[^A-]2|[^A-]2|
[^A-]2|[^A-]2|[^A-]2|[^A-]2|
[^A-]2|[^A-]2|[^A-]2|[^A-]2|
[^A-]2|[^A-]2|[^A-]2|[^A-]2|
[^A-]2|[^A-]2|[^A-]2|[^A-]2|
[^A-]2|[^A-]2|[^A-]2|[^A-]2|
[^A-]2|[^A]3/2[^A-]/2|[^A]3/2[^A-G-]/2|[^AG]3/2[^A-^A-]/2|
[^A^A]3/2[^A-c-]/2|[^Ac]3/2[^A-]/2|[^A]14/4|zz/2^G/2-|
^G3/2G/2-|G3/2F/2-|F2-F/2|z/2^D^D/2-|
^D2-|^D2-|^D2-|^D14/4|
zz/2
L:1/8
M:1/4
K:C clef=F4
V:5
%%MIDI program 45
z2|z2|z2|z2|
z2|z2|z2|z2|
z2|z2|z2|z2|
z2|z2|z2|z2|
z2|z2|z2|z2|
z2|z2|z2|z2|
z2|z2|z2|z2|
z2|z2|z2|zz/2F/2-|
F2-|F3/2G/2-|G3/2F/2-|F3/2^D/2-|
^D/2^A,/2^A,/2^A,/2-|^A,/2^A,^A,/2-|^A,/2z^A,/2-|^A,/2zz/2|
z2|z2|z2|z2|
z2|z2|z2|z2|
z2|z2|z2|z2|
z2|z2|z2|z2|
z2|z2|z2|z2|
z2|z2|z2|z2|
z2|z2|z2|z2|
z2|z2|z2|z2|
zz/2
L:1/8
M:1/4
K:C clef=F4
V:6
%%MIDI program 57
z2|z2|zz/2^D,,/2-|^D,,3/2z/2|
z^D,,7/16^A,,/2-|^A,,/2z/2^D,,7/16G,/2-|G,3/2^D,/2-|^D,7/16^D,15/16z/2|
z2|z2|z2|z2|
z2|z2|z2|z2|
z2|z2|z2|z2|
z2|z2|z2|z2|
z2|z2|z2|z2|
z2|z2|z2|z2|
z2|z2|z2|z2|
z2|z2|z2|z2|
z2|z2|z2|z2|
z2|z2|z2|z2|
z2|z2|z2|z2|
z2|z2|z2|z2|
z2|z2|z2|z2|
z2|z2|z2|z2|
z2|z2|z2|z2|
z2|z2|z2|z2|
zz/2
L:1/8
M:1/4
K:C clef=F4
V:7
%%MIDI program 70
z2|z2|z2|z2|
z2|z2|z2|zz/2^D,/2-|
^D,3|z^A,,/2^D,/2-|^D,3/2^A,,/2-|^A,,3/2^D,/2-|
^D,3|z^A,,/2^D,/2-|^D,3/2^A,,/2-|^A,,3/2^D,/2-|
^D,3/2z/2|z/2^D,D,/2-|D,3/2C,/2-|C,3/2^A,,/2-|
^A,,/2F,,/2F,,/2F,,/2-|F,,/2F,,^A,,/2-|^A,,3/2z/2|z2|
z2|z2|z2|z2|
z2|z2|z2|z2|
z2|z2|z2|z2|
z2|z2|z2|z2|
z2|z2|z2|z2|
z2|z2|z2|z2|
z2|z2|z2|z2|
z2|z2|z2|z2|
z2|z2|z2|z2|
z2|z2|z2|z2|
z2|z2|z2|z2|
z2|z2|z2|z2|
zz/2
L:1/8
M:1/4
K:C clef=F4
V:8
%%MIDI program 48
z2|z2|z2|z2|
z2|z2|z2|z2|
z2|z2|z2|z2|
z2|z2|z2|z2|
z2|z2|z2|z2|
z2|z2|z2|zz/2^D,/2-|
^D,2-^D,/2|zz/2^D,/2-|^D,3/2^D,/2-|^D,/2^A,,^G,,/2-|
^G,,3/2^G,,/2-|^G,,3/2z/2|z2|z2|
z2|z2|z2|z2|
z2|z2|z2|z2|
z2|z2|z2|z2|
z2|z2|z2|z2|
z2|z2|z2|z2|
z2|z2|z2|z2|
z2|z2|z2|z2|
z2|z2|z2|z2|
z2|z2|z2|z2|
z2|z2|z2|z2|
zz/2
L:1/8
M:1/4
K:C clef=F4
V:9
%%MIDI program 45
z2|z2|z2|z2|
z2|z2|z2|z2|
z2|z2|z2|z2|
z2|z2|z2|z2|
z2|z2|z2|z2|
z2|z2|z2|z2|
z2|z2|z2|z2|
z2|z2|z2|zz/2^A,,/2-|
^A,,/2^A,,^A,,/2-|^A,,/2^A,,^A,,/2-|^A,,/2^A,,^A,,/2-|^A,,/2^A,,^A,,/2-|
^A,,/2^A,,F,,/2-|F,,/2G,,^G,,/2-|^G,,/2A,,^A,,/2-|^A,,/2C,^G,,/2-|
^G,,/2^G,,^G,,/2-|^G,,/2^G,,^G,,/2-|^G,,/2^G,,^D,/2-|^D,/2^G,,^D,/2-|
^D,/2^D,^A,,/2-|^A,,/2^A,,^D,/2-|^D,/2^D,^D,/2-|^D,/2^D,^D,/2-|
^D,/2^D,^D,/2-|^D,/2^D,D,/2-|D,/2D,C,/2-|C,/2C,z/2|
z2|z2|z2|z2|
z2|z2|z2|z2|
z2|z2|z2|z2|
z2|z2|z2|z2|
z2|z2|z2|z2|
zz/2
L:1/8
M:1/4
K:C clef=F4
V:10
%%MIDI program 58
z2|z2|z2|z2|
z2|z2|z2|z2|
z2|z2|z2|z2|
z2|z2|z2|z2|
z2|z2|z2|z2|
z2|z2|z2|z2|
z2|z2|z2|z2|
z2|z2|z2|z2|
z2|z2|z2|z2|
z2|z2|z2|z2|
z2|z2|z2|z2|
z2|z2|z2|z2|
z2|z2|z2|z2|
z/2F,,7/16F,,7/16F,,/2-|(3:2F,,/2z/4F,,7/8z/8^A,,/2-|^A,,3/2F,,/2-|F,,/2zz/2|
z2|z2|z2|z2|
z2|z2|z2|z2|
z2|z2|z2|z2|
z2|z2|z2|z2|
zz/2
L:1/8
M:1/4
K:C clef=F4
V:11
%%MIDI program 16
z2|z2|z2|z2|
z2|z2|z2|z2|
z2|z2|z2|z2|
z2|z2|z2|z2|
z2|z2|z2|z2|
z2|z2|z2|z2|
z2|z2|z2|z2|
z2|z2|z2|z2|
z2|z2|z2|z2|
z2|z2|z2|z2|
z2|z2|z2|z2|
z2|z2|z2|z2|
z2|z2|z2|z2|
z2|z2|z2|zz/2^D,/2-|
^D,2-|^D,3/2^D,/2-|^D,3/2^A,,/2-|^A,,3/2^D,/2-|
^D,14/4|zz/2^D,/2-|^D,3/2^A,,/2-|^A,,3/2^G,,/2-|
^G,,3/2^G,/2-|^G,/2^G,,^A,,/2-|^A,,2-^A,,/2|z/2^D,^D,/2-|
^D,2-^D,/2|z/2^A,,^D,,/2-|^D,,2-|^D,,14/4|
zz/2
L:1/8
M:1/4
K:C clef=F4
V:12
%%MIDI program 57
z2|z2|zz/2^A,/2-|^A,3/2z/2|
zG,/2^D/2-|^D^A,/2G/2-|G3/2^A,/2-|^A,/2^A,z/2|
z2|z2|z2|z2|
z2|z2|z2|z2|
z2|z2|z2|z2|
z2|z2|z2|z2|
z2|z2|z2|z2|
z2|z2|z2|z2|
z2|z2|z2|z2|
z2|z2|z2|z2|
z2|z2|z2|z2|
z2|z2|z2|z2|
z2|z2|z2|z2|
z2|z2|z2|z2|
z2|z2|z2|z2|
z2|z2|z2|z2|
z2|z2|z2|z2|
z2|z2|z2|z2|
zz/2
L:1/8
M:1/4
K:C clef=F4
V:13
%%MIDI program 60
z2|z2|z2|z2|
z2|z2|z2|z2|
z2|z2|zz/2^A,/2-|^A,3/2^D/2-|
^D3/2G/2-|G3/2^D/2-|^D2-|^D3/2^A,/2-|
^A,2-|^A,3/2^G,/2-|^G,3/2G,/2-|G,3/2^A,/2-|
^A,/2F7/16F7/16F/2-|F7/16F15/16z/2|z2|z2|
z2|z2|z2|z2|
z2|z2|z2|z2|
z2|z2|z2|z2|
z2|z2|z2|z2|
z2|z2|z2|z2|
z2|z2|z2|z2|
z2|z2|z2|z2|
z2|z2|z2|z2|
z2|z2|z2|z2|
z2|z2|z2|z2|
z2|z2|z2|z2|
z2|z2|z2|z2|
zz/2
L:1/8
M:1/4
K:C clef=F4
V:14
%%MIDI program 48
z2|z2|z2|z2|
z2|z2|z2|z2|
z2|z2|z2|z2|
z2|z2|z2|z2|
z2|z2|z2|z2|
z2|z2|z2|zz/2^A,/2-|
^A,14/4|zz/2^G,/2-|^G,3/2G,/2-|G,3/2C/2-|
C3/2^D/2-|^D3/2z/2|z2|z2|
z2|z2|z2|z2|
z2|z2|z2|z2|
z2|z2|z2|z2|
z2|z2|z2|z2|
z2|z2|z2|z2|
z2|z2|z2|z2|
z2|z2|z2|z2|
z2|z2|z2|z2|
z2|z2|z2|z2|
z2|z2|z2|z2|
zz/2
L:1/8
M:1/4
K:C clef=F4
V:15
%%MIDI program 45
z2|z2|z2|z2|
z2|z2|z2|z2|
z2|z2|z2|z2|
z2|z2|z2|z2|
z2|z2|z2|z2|
z2|z2|z2|z2|
z2|z2|z2|z2|
z2|z2|z2|zz/2^A,/2-|
^A,/2^A,D/2-|D/2^A,^A,/2-|^A,/2^A,D/2-|D/2^A,^G,/2-|
^G,/2^G,^G,/2-|^G,/2G,^G,/2-|^G,/2^A,C/2-|C/2zz/2|
z2|z2|z2|z2|
z2|z2|z2|z2|
z2|z2|z2|z2|
z2|z2|z2|z2|
z2|z2|z2|z2|
z2|z2|z2|z2|
z2|z2|z2|z2|
z2|z2|z2|z2|
zz/2
L:1/8
M:1/4
K:C clef=F4
V:16
%%MIDI program 69
z2|z2|z2|z2|
z2|z2|z2|z2|
z2|z2|z2|z2|
z2|z2|z2|z2|
z2|z2|z2|z2|
z2|z2|z2|z2|
z2|z2|z2|z2|
z2|z2|z2|z2|
z2|z2|z2|z2|
z2|z2|z2|zz/2^D/2-|
^D2-^D/2|z/2^D^D/2-|^D3/2^D/2-|^D3/2^D/2-|
^D3/2^A,/2-|^A,3/2^D/2-|^D2-|^D3/2^A,/2-|
^A,2-|^A,3/2^G,/2-|^G,3/2G,/2-|G,3/2F,/2-|
F,2-|F,14/4|z2|z2|
z2|z2|z2|z2|
z2|z2|z2|z2|
z2|z2|z2|z2|
z2|z2|z2|z2|
zz/2
L:1/8
M:1/4
K:C clef=F4
V:17
%%MIDI program 19
z2|z2|z2|z2|
z2|z2|z2|z2|
z2|z2|z2|z2|
z2|z2|z2|z2|
z2|z2|z2|z2|
z2|z2|z2|z2|
z2|z2|z2|z2|
z2|z2|z2|z2|
z2|z2|z2|z2|
z2|z2|z2|z2|
z2|z2|z2|z2|
z2|z2|z2|z2|
z2|z2|z2|z2|
z2|z2|z2|z2|
z2|z2|zz/2^A,/2-|^A,3/2^D/2-|
^D3/2G/2-|G3/2^D/2-|^D14/4|zz/2C/2-|
C14/4|zz/2^A,/2-|^A,2-|^A,3/2G,/2-|
G,2-|G,2-|G,2-|G,14/4|
zz/2
L:1/8
M:1/4
K:C clef=F4
V:18
%%MIDI program 58
z2|z2|zz/2G,/2-|G,3/2z/2|
zz/2^D,/2-|^D,^D,/2^A,/2-|^A,3/2^D,/2-|^D,/2^D,z/2|
z2|z2|z2|z2|
z2|z2|z2|z2|
z2|z2|z2|z2|
z2|z2|z2|z2|
z2|z2|z2|z2|
z2|z2|z2|z2|
z2|z2|z2|z2|
z2|z2|z2|z2|
z2|z2|z2|z2|
z2|z2|z2|z2|
z2|z2|z2|z2|
z2|z2|z2|z2|
z2|z2|z2|z2|
z2|z2|z2|z2|
z2|z2|z2|z2|
z2|z2|z2|z2|
zz/2
L:1/8
M:1/4
K:C clef=F4
V:19
%%MIDI program 68
z2|z2|z2|z2|
z2|z2|z2|z2|
z2|z2|zz/2^D/2-|^D3/2G/2-|
G3/2^G/2-|^G3/2G/2-|G2-|G3/2^D/2-|
^D2-|^D3/2^A,/2-|^A,3/2C/2-|C3/2D/2-|
D2-|D2-|D3/2z/2|z2|
z2|z2|z2|z2|
z2|z2|z2|z2|
z2|z2|z2|z2|
z2|z2|z2|z2|
z2|z2|z2|z2|
z2|z2|z2|z2|
z2|z2|z2|z2|
z2|z2|z2|z2|
z2|z2|z2|z2|
z2|z2|z2|z2|
z2|z2|z2|z2|
z2|z2|z2|z2|
zz/2
L:1/8
M:1/4
K:C clef=F4
V:20
%%MIDI program 48
z2|z2|z2|z2|
z2|z2|z2|z2|
z2|z2|z2|z2|
z2|z2|z2|z2|
z2|z2|z2|z2|
z2|z2|z2|z2|
z2|zz/2D/2-|D3/2F/2-|F3/2^D/2-|
^D3/2^G/2-|^G3/2G/2-|G14/4|zz/2[D-]/2|
[D-]2|[D-]2|[D-]2|[D-]2|
[D-]2|[D-]2|[D-]2|[D-]2|
[D-]2|[D-]2|[D-]2|[D-]2|
[D-]2|[D-]2|[D-]2|[D-]2|
[D-]2|[D-]2|[D-]2|[D-]2|
[D-]2|[D-]2|[D-]2|[D]3/2[D-]/2|
[D-]2|[D]3/2[D-]/2|[D]3/2[D-^D-]/2|[D^D]3/2[D-G-]/2|
[DG]3/2[D-^G-]/2|[D^G]3/2[D-G-]/2|[DG]14/4|zz/2[D-F-]/2|
[DF]14/4|zz/2[D-^D-]/2|[D^D]3/2[D-]/2|[D]3/2^D/2-|
^D2-|^D2-|^D2-|^D14/4|
zz/2
L:1/8
M:1/4
K:C clef=F4
V:21
%%MIDI program 45
z2|z2|z2|z2|
z2|z2|z2|z2|
z2|z2|z2|z2|
z2|z2|z2|z2|
z2|z2|z2|z2|
z2|z2|z2|z2|
z2|z2|z2|z2|
z2|z2|z2|z2|
z2|z2|z2|zz/2^D/2-|
^D/2^D^D/2-|^D/2^D^D/2-|^D/2^D^D/2-|^D/2zz/2|
z2|z2|z2|z2|
z2|z2|z2|z2|
z2|z2|z2|z2|
z2|z2|z2|z2|
z2|z2|z2|z2|
z2|z2|z2|z2|
z2|z2|z2|z2|
z2|z2|z2|z2|
zz/2
L:1/8
M:1/4
K:C clef=F4
V:22
%%MIDI program 69
z2|z2|z2|z2|
z2|z2|z2|z2|
z2|z2|z2|z2|
z2|z2|z2|z2|
z2|z2|z2|z2|
z2|z2|z2|z2|
z2|z2|z2|z2|
z2|z2|z2|z2|
z2|z2|z2|z2|
z2|z2|z2|zz/2^G/2-|
^G2-^G/2|z/2^Gc/2-|c3/2^G/2-|^G3/2G/2-|
G3/2^D/2-|^D3/2G/2-|G2-|G3/2^D/2-|
^D2-|^D3/2^A,/2-|^A,3/2C/2-|C3/2D/2-|
D/2F,/2F,/2^A,/2-|^A,/2F,^A,/2-|^A,/2F,z/2|z2|
z2|z2|z2|z2|
z2|z2|z2|z2|
z2|z2|z2|z2|
z2|z2|z2|z2|
zz/2
L:1/8
M:1/4
K:C clef=F4
V:23
%%MIDI program 48
zz/2B,,,/2|B,,,2|zB,,,/2B,,,/2-|B,,,3/2z/2|
zB,,,/2B,,,/2-|B,,,B,,,/2B,,,/2-|B,,,z|zB,,,/2B,,,/2-|
B,,,3/2z/2|zB,,,/2B,,,/2-|B,,,3/2z/2|zB,,,/2B,,,/2-|
B,,,3/2z/2|zB,,,/2[B,,,-]/2|[B,,,][B,,,B,,,]/2[B,,,-]/2|[B,,,][B,,,B,,,]/2B,,,/2-|
B,,,3/2z/2|zB,,,/2B,,,/2-|B,,,3/2z/2|zB,,,/2B,,,/2-|
B,,,3/2z/2|zB,,,/2[B,,,-]/2|[B,,,][B,,,B,,,]/2B,,,/2-|B,,,B,,,/2B,,,/2-|
B,,,3/2z/2|zB,,,/2B,,,/2-|B,,,3/2z/2|zB,,,/2B,,,/2-|
B,,,3/2z/2|zB,,,/2B,,,/2-|B,,,B,,,/2B,,,/2-|B,,,[B,,,-]/2[B,,,-B,,,-]/2|
[B,,,B,,,]/2zz/2|zB,,,/2B,,,/2-|B,,,3/2z/2|zB,,,/2B,,,/2-|
B,,,3/2z/2|zB,,,/2B,,,/2-|B,,,B,,,/2B,,,/2-|B,,,B,,,/2B,,,/2-|
B,,,3/2z/2|zB,,,/2B,,,/2-|B,,,3/2z/2|zB,,,/2B,,,/2-|
B,,,3/2z/2|zB,,,/2B,,,/2-|B,,,3/2z/2|zB,,,/2B,,,/2-|
B,,,3/2z/2|zB,,,/2B,,,/2-|B,,,B,,,/2B,,,/2-|B,,,B,,,/2B,,,/2-|
B,,,3/2z/2|zB,,,/2B,,,/2-|B,,,3/2z/2|zB,,,/2B,,,/2-|
B,,,3/2z/2|zB,,,/2B,,,/2-|B,,,3/2z/2|zB,,,/2B,,,/2-|
B,,,3/2z/2|zB,,,/2B,,,/2-|B,,,B,,,/2B,,,/2-|B,,,B,,,/2B,,,/2-|
B,,,3/2z/2|zB,,,/2B,,,/2-|B,,,3/2z/2|zB,,,/2B,,,/2-|
B,,,3/2z/2|zB,,,/2B,,,/2|B,,,/2zz/2|z2|
zz/2
L:1/8
M:1/4
K:C clef=F4
V:24
%%MIDI program 0
z2|[B,-D,,]3/2[B,]/2|zE,,/2[E,,-A,-]/2|[E,,A,]3/2z/2|
zD,,/2[A,-D,,]/2|[A,-]/2[A,-D,,]/2[A,]/2[A,-E,,]/2|[A,]3/2[B,-D,,]15/32|[B,]/2[B,-D,,]/2[B,]/2E,,/2|
z/2D,,/2D,,/2E,,/2|z/2D,,/2E,,/2D,,/2|z/2E,,/2D,,/2E,,/2|z/2D,,/2z/2D,,/2|
z/2E,,/2D,,/2E,,/2|z/2D,,/2E,,/2D,,/2|z/2E,,/2D,,/2[B,-A,-E,,]/2|[B,-A,-]/2[B,-A,-D,,]/2[B,A,]/2E,,/2|
z/2D,,/2E,,/2D,,/2|z/2E,,/2D,,/2E,,/2|z/2D,,/2E,,/2D,,/2|z/2D,,/2z/2E,,/2|
z/2D,,/2D,,/2E,,/2|z/2D,,/2z/2E,,/2|z/2D,,/2D,,/2E,,/2|D,,/2E,,/2z/2[A,-D,,]/2|
[A,-]/2[A,-D,,]/2[A,D,,]/2E,,/2|z/2D,,/2E,,/2D,,/2|z/2D,,/2z/2E,,/2|z/2D,,/2z/2E,,/2|
z/2D,,/2E,,/2D,,/2|z/2E,,/2D,,/2E,,/2|z/2D,,/2E,,/2D,,/2|z/2D,,/2z/2[B,-E,,]/2|
[B,-]/2[B,-D,,]/2[B,E,,]/2D,,/2|z/2E,,/2D,,/2[B,-E,,]/2|[B,-]/2[B,-D,,]/2[B,E,,]/2D,,/2|z/2E,,/2D,,/2[B,-E,,]/2|
[B,-]/2[B,-D,,]/2[B,E,,]/2[B,-D,,]/2|[B,-]/2[B,-E,,]/2[B,]/2[A,-D,,]/2|[A,]3/2[B,-E,,]/2|[B,-D,,]/2[B,-E,,]/2[B,]/2D,,/2|
z/2E,,/2D,,/2[B,-E,,]/2|[B,-]/2[B,-D,,]/2[B,E,,]/2D,,/2|z/2E,,/2D,,/2E,,/2|z/2D,,/2E,,/2D,,/2|
z/2E,,/2D,,/2E,,/2|z/2D,,/2E,,/2D,,/2|z/2E,,/2D,,/2E,,/2|D,,/2E,,/2z/2[B,-A,-D,,]/2|
[B,-A,-]/2[B,-A,-E,,]/2[B,A,D,,]/2E,,/2|z/2D,,/2E,,/2D,,/2|z/2E,,/2D,,/2E,,/2|z/2D,,/2z/2E,,/2|
z/2D,,/2E,,/2D,,/2|z/2E,,/2z/2D,,/2|z/2E,,/2z/2D,,/2|z/2E,,/2z/2[B,-A,-D,,]/2|
[B,-A,-]/2[B,-A,-E,,]/2[B,A,D,,]/2E,,/2|z/2D,,/2E,,/2D,,/2|z/2E,,/2D,,/2E,,/2|z/2D,,/2E,,/2D,,/2|
z/2E,,/2D,,/2E,,/2|z/2D,,/2E,,/2D,,/2|z/2E,,/2D,,/2[B,-E,,]/2|[B,-]/2[B,-D,,]/2[B,E,,]/2[A,-D,,]/2|
[A,-]/2[A,-E,,]/2[A,D,,]/2E,,/2|z/2D,,/2E,,/2D,,/2|z/2E,,/2D,,/2[B,-E,,]/2|[B,-]/2[B,-D,,]/2[B,]/2[B,-A,-D,,]/2|
[B,-A,-]/2[B,-A,-E,,]/2[B,A,D,,]/2E,,/2|z/2D,,/2z/2E,,/2|z/2D,,/2z/2E,,/2|z2|
zz/2
L:1/8
M:1/4
K:C clef=F4
V:25
%%MIDI program 0
z2|C,,2|zz/2C,,/2-|C,,3/2z/2|
zz/2C,,/2-|C,,3/2C,,/2-|C,,3/2C,,/2-|C,,/2C,,^D,/2-|
^D,3/2z/2|z2|z2|z2|
z2|z2|z2|z2|
z2|z2|z2|zz/2^A,,/2-|
^A,,/2^A,,/4z/4^A,,/4z/4^A,,/2|z/2^A,,/2z/2^A,,/4^A,,/4|^A,,/4^A,,/4^A,,/4^A,,/4^A,,/2z/2|z/2^A,,^D,/2-|
^D,3/2z/2|z2|z2|z2|
z2|z2|z2|z2|
z2|z2|z2|z2|
z2|z2|z2|zz/2^G,,/2|
z/2^G,,/2^G,,/2^G,,/2-|^G,,/2^G,,/2^G,,/2^G,,/2|z/2^G,,/2z/2^G,,/2|z/2^G,,^D,/2-|
^D,/2^D,/2^D,/2^D,/2-|^D,/2^A,,^D,/2-|^D,/2^A,,^D,/2-|^D,/2^A,,^D,/2-|
^D,/2zz/2|zz/2D,/2-|D,3/2C,/2-|C,/2z^A,,/2-|
^A,,/2^A,,/2^A,,/2^A,,/2|z/2^A,,/2z/2^A,,/2|^A,,/2^A,,/4^A,,/4^A,,/2^A,,/2-|^A,,/2^A,,z/2|
z2|z2|z2|zz/2^D,/2-|
^D,3/2z/2|z/2^A,,^D,/2-|^D,3/2^D,/2-|^D,/2z^G,,/2-|
^G,,3/2z/2|z/2^G,,^A,,/2-|^A,,/2z^A,,/2|z/2^A,,^D,/2-|
^D,/2^A,,/4z/4^A,,/2^D,/2-|^D,/2^A,,^D,/2-|^D,/2^A,,^D,/2-|^D,/2^A,,^D,/2-|
^D,3/2
L:1/8
M:1/4
K:C clef=G2
V:26
%%MIDI program 46
z2|z2|z2|z2|
z2|z2|z2|z2|
z2|z2|z2|z2|
z2|z2|z2|z2|
z2|z2|z2|z2|
z2|z2|z2|z2|
z2|z2|z2|z2|
z2|z2|z2|z2|
z2|z2|z2|z2|
z2|z/2^A,,/4F,/4^A,/4D/4F/4^G/4|^A/4c/4d/4f/4^g/4^a/4c'/4d'/4|f'/4[g'-]/4[g'-^g']/4[g'-^a']/4[g'd'']/4f''/4^G,,/2|
^D,/2^G,/2C/2^G/2|c/2^D/2C/2^G,,/2|^D,/2^G,/2C/2^G/2|c/2^D/2C/2^D,/2|
^A,/2^D/2G/2^d/2|g/2^A/2G/2^D,/2|^A,/2^D/2G/2^d/2|g/2^A/2G/2^D,/2|
^A,/2^D/2G/2^d/2|g/2^A/2G/2^D,/2|^A,/2^D/2F/2d/2|f/2^A/2^G/2^A,,/2|
F,/2^A,/2C/2^G/2|c/2F/2D/2^A,,/2|F,/2^A,/2D/2^A/2|d/2^G/2D/2^D,/2|
^A,/2^D/2G/2^d/2|g/2^A/2G/2^D,/2|^A,/2^D/2G/2^d/2|g/2^A/2G/2^D,/2|
^A,/2^D/2G/2^d/2|g/2^A/2G/2^D,/2|^A,/2^D/2G/2^d/2|g/2^A/2G/2^G,,/2|
^D,/2^G,/2C/2^G/2|c/2F/2C/2^A,,/2|F,/2^A,/2D/2^A/2|d/2^G/2F/2^D,/2|
^A,/2^D/2G/2^d/2|g/2^A/2G/2^D/2|^A,/2^D,/2^A,/2^D/2|G/2^A/2^d/2g/2-|
g3/2
L:1/8
M:1/4
K:C clef=G2
V:27
%%MIDI program 14
z2|z2|z2|z2|
z2|z2|z2|zz/2[^d-^D-]/2|
[^d^D]/2zz/2|zz/2[^d-^D-]/2|[^d^D]/2z[g-G-]/2|[gG]/2z[^A-^a-]/2|
[^A^a]/2z[c'-c-]/2|[c'c]/2z[^a-^A-]/2|[^a^A]/2zz/2|zz/2[g-G-]/2|
[gG]/2zz/2|zz/2[f-F-]/2|[fF]/2z[^d-^D-]/2|[^d^D]/2z[f-F-]/2|
[fF]/2zz/2|z2|z2|zz/2[g-G-]/2|
[gG]/2zz/2|zz/2[f-F-]/2|[fF]/2z[f-F-]/2|[fF]/2z[^G-^g-]/2|
[^G^g]/2z[c-c'-]/2|[cc']/2z[^a-^A-]/2|[^a^A]/2zz/2|zz/2[f-F-]/2|
[fF]/2zz/2|zz/2[g-G-]/2|[gG]/2z[f-F-]/2|[fF]/2z[^d-^D-]/2|
[^d^D]/2zz/2|z2|z2|zz/2[c'-c-]/2|
[c'c]/2zz/2|z/2[cc'][^d'-^d-]/2|[^d'^d]/2z[c'-c-]/2|[c'c]/2z[^a-^A-]/2|
[^a^A]/2z[G-g-]/2|[Gg]/2z[^A-^a-]/2|[^A^a]/2zz/2|zz/2[g-G-]/2|
[gG]/2zz/2|zz/2[f-F-]/2|[fF]/2z[^d-^D-]/2|[^d^D]/2z[^A-^a-]/2|
[^A^a]/2zz/2|z2|z2|zz/2[^D-^d-]/2|
[^D^d]/2zz/2|zz/2[^D-^d-]/2|[^D^d]/2z[G-g-]/2|[Gg]/2z[^a-^A-]/2|
[^a^A]/2z[c-c'-]/2|[cc']/2z[^a-^A-]/2|[^a^A]/2zz/2|zz/2[^g-^G-]/2|
[^g^G]/2z[g-G-]/2|[gG]/2z[f-F-]/2|[fF]/2zz/2|zz/2[^D-^d-]/2|
[^D^d]/2zz/2|z2|z2|z2|
zz/2
L:1/8
M:1/4
K:C clef=G2
V:28
%%MIDI program 11
z2|z2|z2|z2|
z2|z2|z2|z2|
z2|z2|z2|z2|
z2|z2|z2|z2|
z2|z2|z2|z2|
z2|z2|z2|z2|
z2|zz/2F/2-|F3/2F/2-|F3/2^G/2-|
^G3/2c/2-|c3/2^A/2-|^A14/4|zz/2F/2-|
F2-|F3/2G/2-|G3/2F/2-|F3/2^D/2-|
^D3-^D/4|z2|z2|z2|
z2|z2|z2|z2|
z2|z2|z2|z2|
z2|z2|z2|z2|
z2|z2|z2|z2|
z2|z2|z2|z2|
z2|z2|z2|z2|
z2|z2|z2|z2|
z2|z2|z2|z2|
zz/2
L:1/8
M:1/4
K:C clef=G2
V:29
%%MIDI program 60
^D7/16zz/2|z^A,7/16G7/16|z2|z^D7/16^A7/16|
zG7/16^d7/16|z^A7/16g/2-|g7/16g7/16g7/16g/2-|g7/16g15/16[^D-]/2|
[^D-]2|[^D-]2|[^D-]2|[^D-]2|
[^D-]2|[^D-]2|[^D-]2|[^D-]2|
[^D-]2|[^D-]2|[^D-]2|[^D-]2|
[^D-]2|[^D-]2|[^D-]2|[^D-]2|
[^D-]2|[^D-]2|[^D-]2|[^D-]2|
[^D-]2|[^D-]2|[^D-]2|[^D-]2|
[^D-]2|[^D-]2|[^D-]2|[^D-]2|
[^D-]2|[^D-]2|[^D-]2|[^D]3/2[^D-c-]/2|
[^D-c-]2[^Dc]/2|z/2[^D-c][^D-^d-]/2|[^D^d]3/2[^D-c-]/2|[^Dc]3/2[^D-^A-]/2|
[^D^A]3/2[^D-G-]/2|[^DG]3/2[^D-^A-]/2|[^D-^A-]2|[^D^A]3/2[^D-G-]/2|
[^D-G-]2|[^DG]3/2[^D-F-]/2|[^DF]3/2[^D-]/2|[^D]3/2^A/2-|
^A2-|^A14/4|z2|z2|
z2|z2|z2|z2|
z2|z2|z2|z2|
z2|z2|z2|z2|
z2|z2|z2|z2|
zz/2
L:1/8
M:1/4
K:C clef=G2
V:30
%%MIDI program 59
z2|z2|z2|z2|
z2|z2|z2|z2|
z2|z2|zz/2G/2-|G3/2^A/2-|
^A3/2c/2-|c3/2^A/2-|^A2-|^A3/2z/2|
z2|z2|z2|z2|
z2|z2|z2|z2|
z2|z2|z2|z2|
z2|z2|z2|z2|
z2|z2|z2|z2|
z2|z2|z2|z2|
z2|z2|z2|z2|
z2|z2|z2|z2|
z2|z2|z2|z2|
z2|z2|z2|z2|
z2|z2|z2|z2|
z2|z2|z2|z2|
z2|z2|z2|z2|
z2|z2|z2|z2|
zz/2
L:1/8
M:1/4
K:C clef=G2
V:31
%%MIDI program 68
z2|z2|z2|z2|
z2|z2|z2|z2|
z2|z2|z2|z2|
z2|z2|z2|z2|
z2|zz/2F/2-|F3/2^D/2-|^D3/2F/2-|
F2-|F2-|F3/2z/2|z2|
z2|z2|z2|z2|
z2|z2|z2|z2|
z2|z2|z2|z2|
z2|z2|z2|z2|
z2|z2|z2|z2|
z2|z2|z2|z2|
z2|z2|z2|z2|
z2|z2|z2|z2|
z2|z2|z2|z2|
z2|z2|z2|z2|
z2|z2|z2|z2|
z2|z2|z2|z2|
zz/2
L:1/8
M:1/4
K:C clef=G2
V:32
%%MIDI program 48
z2|z2|z2|z2|
z2|z2|z2|z2|
z2|z2|z2|z2|
z2|z2|z2|z2|
z2|z2|z2|z2|
z2|z2|z2|zz/2G/2-|
G14/4|zz/2F/2-|F3/2F/2-|F3/2^G/2-|
^G3/2c/2-|c3/2[^A-]/2|[^A-]2|[^A-]2|
[^A-]2|[^A-]2|[^A-]2|[^A-]2|
[^A-]2|[^A-]2|[^A-]2|[^A-]2|
[^A-]2|[^A-]2|[^A-]2|[^A-]2|
[^A-]2|[^A-]2|[^A-]2|[^A-]2|
[^A-]2|[^A-]2|[^A-]2|[^A-]2|
[^A-]2|[^A-]2|[^A-]2|[^A-]2|
[^A-]2|[^A]3/2[^A-]/2|[^A]3/2[^A-G-]/2|[^AG]3/2[^A-^A-]/2|
[^A^A]3/2[^A-c-]/2|[^Ac]3/2[^A-]/2|[^A]14/4|zz/2^G/2-|
^G3/2G/2-|G3/2F/2-|F2-F/2|z/2^D^D/2-|
^D2-|^D2-|^D2-|^D14/4|
zz/2
L:1/8
M:1/4
K:C clef=F4
V:33
%%MIDI program 45
z2|z2|z2|z2|
z2|z2|z2|z2|
z2|z2|z2|z2|
z2|z2|z2|z2|
z2|z2|z2|z2|
z2|z2|z2|z2|
z2|z2|z2|z2|
z2|z2|z2|zz/2F/2-|
F2-|F3/2G/2-|G3/2F/2-|F3/2^D/2-|
^D/2^A,/2^A,/2^A,/2-|^A,/2^A,^A,/2-|^A,/2z^A,/2-|^A,/2zz/2|
z2|z2|z2|z2|
z2|z2|z2|z2|
z2|z2|z2|z2|
z2|z2|z2|z2|
z2|z2|z2|z2|
z2|z2|z2|z2|
z2|z2|z2|z2|
z2|z2|z2|z2|
zz/2
L:1/8
M:1/4
K:C clef=F4
V:34
%%MIDI program 57
z2|z2|zz/2^D,,/2-|^D,,3/2z/2|
z^D,,7/16^A,,/2-|^A,,/2z/2^D,,7/16G,/2-|G,3/2^D,/2-|^D,7/16^D,15/16z/2|
z2|z2|z2|z2|
z2|z2|z2|z2|
z2|z2|z2|z2|
z2|z2|z2|z2|
z2|z2|z2|z2|
z2|z2|z2|z2|
z2|z2|z2|z2|
z2|z2|z2|z2|
z2|z2|z2|z2|
z2|z2|z2|z2|
z2|z2|z2|z2|
z2|z2|z2|z2|
z2|z2|z2|z2|
z2|z2|z2|z2|
z2|z2|z2|z2|
z2|z2|z2|z2|
zz/2
L:1/8
M:1/4
K:C clef=F4
V:35
%%MIDI program 70
z2|z2|z2|z2|
z2|z2|z2|zz/2^D,/2-|
^D,3|z^A,,/2^D,/2-|^D,3/2^A,,/2-|^A,,3/2^D,/2-|
^D,3|z^A,,/2^D,/2-|^D,3/2^A,,/2-|^A,,3/2^D,/2-|
^D,3/2z/2|z/2^D,D,/2-|D,3/2C,/2-|C,3/2^A,,/2-|
^A,,/2F,,/2F,,/2F,,/2-|F,,/2F,,^A,,/2-|^A,,3/2z/2|z2|
z2|z2|z2|z2|
z2|z2|z2|z2|
z2|z2|z2|z2|
z2|z2|z2|z2|
z2|z2|z2|z2|
z2|z2|z2|z2|
z2|z2|z2|z2|
z2|z2|z2|z2|
z2|z2|z2|z2|
z2|z2|z2|z2|
z2|z2|z2|z2|
z2|z2|z2|z2|
zz/2
L:1/8
M:1/4
K:C clef=F4
V:36
%%MIDI program 48
z2|z2|z2|z2|
z2|z2|z2|z2|
z2|z2|z2|z2|
z2|z2|z2|z2|
z2|z2|z2|z2|
z2|z2|z2|zz/2^D,/2-|
^D,2-^D,/2|zz/2^D,/2-|^D,3/2^D,/2-|^D,/2^A,,^G,,/2-|
^G,,3/2^G,,/2-|^G,,3/2z/2|z2|z2|
z2|z2|z2|z2|
z2|z2|z2|z2|
z2|z2|z2|z2|
z2|z2|z2|z2|
z2|z2|z2|z2|
z2|z2|z2|z2|
z2|z2|z2|z2|
z2|z2|z2|z2|
z2|z2|z2|z2|
z2|z2|z2|z2|
zz/2
L:1/8
M:1/4
K:C clef=F4
V:37
%%MIDI program 45
z2|z2|z2|z2|
z2|z2|z2|z2|
z2|z2|z2|z2|
z2|z2|z2|z2|
z2|z2|z2|z2|
z2|z2|z2|z2|
z2|z2|z2|z2|
z2|z2|z2|zz/2^A,,/2-|
^A,,/2^A,,^A,,/2-|^A,,/2^A,,^A,,/2-|^A,,/2^A,,^A,,/2-|^A,,/2^A,,^A,,/2-|
^A,,/2^A,,F,,/2-|F,,/2G,,^G,,/2-|^G,,/2A,,^A,,/2-|^A,,/2C,^G,,/2-|
^G,,/2^G,,^G,,/2-|^G,,/2^G,,^G,,/2-|^G,,/2^G,,^D,/2-|^D,/2^G,,^D,/2-|
^D,/2^D,^A,,/2-|^A,,/2^A,,^D,/2-|^D,/2^D,^D,/2-|^D,/2^D,^D,/2-|
^D,/2^D,^D,/2-|^D,/2^D,D,/2-|D,/2D,C,/2-|C,/2C,z/2|
z2|z2|z2|z2|
z2|z2|z2|z2|
z2|z2|z2|z2|
z2|z2|z2|z2|
z2|z2|z2|z2|
zz/2
L:1/8
M:1/4
K:C clef=F4
V:38
%%MIDI program 58
z2|z2|z2|z2|
z2|z2|z2|z2|
z2|z2|z2|z2|
z2|z2|z2|z2|
z2|z2|z2|z2|
z2|z2|z2|z2|
z2|z2|z2|z2|
z2|z2|z2|z2|
z2|z2|z2|z2|
z2|z2|z2|z2|
z2|z2|z2|z2|
z2|z2|z2|z2|
z2|z2|z2|z2|
z/2F,,7/16F,,7/16F,,/2-|(3:2F,,/2z/4F,,7/8z/8^A,,/2-|^A,,3/2F,,/2-|F,,/2zz/2|
z2|z2|z2|z2|
z2|z2|z2|z2|
z2|z2|z2|z2|
z2|z2|z2|z2|
zz/2
L:1/8
M:1/4
K:C clef=F4
V:39
%%MIDI program 16
z2|z2|z2|z2|
z2|z2|z2|z2|
z2|z2|z2|z2|
z2|z2|z2|z2|
z2|z2|z2|z2|
z2|z2|z2|z2|
z2|z2|z2|z2|
z2|z2|z2|z2|
z2|z2|z2|z2|
z2|z2|z2|z2|
z2|z2|z2|z2|
z2|z2|z2|z2|
z2|z2|z2|z2|
z2|z2|z2|zz/2^D,/2-|
^D,2-|^D,3/2^D,/2-|^D,3/2^A,,/2-|^A,,3/2^D,/2-|
^D,14/4|zz/2^D,/2-|^D,3/2^A,,/2-|^A,,3/2^G,,/2-|
^G,,3/2^G,/2-|^G,/2^G,,^A,,/2-|^A,,2-^A,,/2|z/2^D,^D,/2-|
^D,2-^D,/2|z/2^A,,^D,,/2-|^D,,2-|^D,,14/4|
zz/2
L:1/8
M:1/4
K:C clef=F4
V:40
%%MIDI program 57
z2|z2|zz/2^A,/2-|^A,3/2z/2|
zG,/2^D/2-|^D^A,/2G/2-|G3/2^A,/2-|^A,/2^A,z/2|
z2|z2|z2|z2|
z2|z2|z2|z2|
z2|z2|z2|z2|
z2|z2|z2|z2|
z2|z2|z2|z2|
z2|z2|z2|z2|
z2|z2|z2|z2|
z2|z2|z2|z2|
z2|z2|z2|z2|
z2|z2|z2|z2|
z2|z2|z2|z2|
z2|z2|z2|z2|
z2|z2|z2|z2|
z2|z2|z2|z2|
z2|z2|z2|z2|
z2|z2|z2|z2|
zz/2
L:1/8
M:1/4
K:C clef=F4
V:41
%%MIDI program 60
z2|z2|z2|z2|
z2|z2|z2|z2|
z2|z2|zz/2^A,/2-|^A,3/2^D/2-|
^D3/2G/2-|G3/2^D/2-|^D2-|^D3/2^A,/2-|
^A,2-|^A,3/2^G,/2-|^G,3/2G,/2-|G,3/2^A,/2-|
^A,/2F7/16F7/16F/2-|F7/16F15/16z/2|z2|z2|
z2|z2|z2|z2|
z2|z2|z2|z2|
z2|z2|z2|z2|
z2|z2|z2|z2|
z2|z2|z2|z2|
z2|z2|z2|z2|
z2|z2|z2|z2|
z2|z2|z2|z2|
z2|z2|z2|z2|
z2|z2|z2|z2|
z2|z2|z2|z2|
z2|z2|z2|z2|
zz/2
L:1/8
M:1/4
K:C clef=F4
V:42
%%MIDI program 48
z2|z2|z2|z2|
z2|z2|z2|z2|
z2|z2|z2|z2|
z2|z2|z2|z2|
z2|z2|z2|z2|
z2|z2|z2|zz/2^A,/2-|
^A,14/4|zz/2^G,/2-|^G,3/2G,/2-|G,3/2C/2-|
C3/2^D/2-|^D3/2z/2|z2|z2|
z2|z2|z2|z2|
z2|z2|z2|z2|
z2|z2|z2|z2|
z2|z2|z2|z2|
z2|z2|z2|z2|
z2|z2|z2|z2|
z2|z2|z2|z2|
z2|z2|z2|z2|
z2|z2|z2|z2|
z2|z2|z2|z2|
zz/2
L:1/8
M:1/4
K:C clef=F4
V:43
%%MIDI program 45
z2|z2|z2|z2|
z2|z2|z2|z2|
z2|z2|z2|z2|
z2|z2|z2|z2|
z2|z2|z2|z2|
z2|z2|z2|z2|
z2|z2|z2|z2|
z2|z2|z2|zz/2^A,/2-|
^A,/2^A,D/2-|D/2^A,^A,/2-|^A,/2^A,D/2-|D/2^A,^G,/2-|
^G,/2^G,^G,/2-|^G,/2G,^G,/2-|^G,/2^A,C/2-|C/2zz/2|
z2|z2|z2|z2|
z2|z2|z2|z2|
z2|z2|z2|z2|
z2|z2|z2|z2|
z2|z2|z2|z2|
z2|z2|z2|z2|
z2|z2|z2|z2|
z2|z2|z2|z2|
zz/2
L:1/8
M:1/4
K:C clef=F4
V:44
%%MIDI program 69
z2|z2|z2|z2|
z2|z2|z2|z2|
z2|z2|z2|z2|
z2|z2|z2|z2|
z2|z2|z2|z2|
z2|z2|z2|z2|
z2|z2|z2|z2|
z2|z2|z2|z2|
z2|z2|z2|z2|
z2|z2|z2|zz/2^D/2-|
^D2-^D/2|z/2^D^D/2-|^D3/2^D/2-|^D3/2^D/2-|
^D3/2^A,/2-|^A,3/2^D/2-|^D2-|^D3/2^A,/2-|
^A,2-|^A,3/2^G,/2-|^G,3/2G,/2-|G,3/2F,/2-|
F,2-|F,14/4|z2|z2|
z2|z2|z2|z2|
z2|z2|z2|z2|
z2|z2|z2|z2|
z2|z2|z2|z2|
zz/2
L:1/8
M:1/4
K:C clef=F4
V:45
%%MIDI program 19
z2|z2|z2|z2|
z2|z2|z2|z2|
z2|z2|z2|z2|
z2|z2|z2|z2|
z2|z2|z2|z2|
z2|z2|z2|z2|
z2|z2|z2|z2|
z2|z2|z2|z2|
z2|z2|z2|z2|
z2|z2|z2|z2|
z2|z2|z2|z2|
z2|z2|z2|z2|
z2|z2|z2|z2|
z2|z2|z2|z2|
z2|z2|zz/2^A,/2-|^A,3/2^D/2-|
^D3/2G/2-|G3/2^D/2-|^D14/4|zz/2C/2-|
C14/4|zz/2^A,/2-|^A,2-|^A,3/2G,/2-|
G,2-|G,2-|G,2-|G,14/4|
zz/2
L:1/8
M:1/4
K:C clef=F4
V:46
%%MIDI program 58
z2|z2|zz/2G,/2-|G,3/2z/2|
zz/2^D,/2-|^D,^D,/2^A,/2-|^A,3/2^D,/2-|^D,/2^D,z/2|
z2|z2|z2|z2|
z2|z2|z2|z2|
z2|z2|z2|z2|
z2|z2|z2|z2|
z2|z2|z2|z2|
z2|z2|z2|z2|
z2|z2|z2|z2|
z2|z2|z2|z2|
z2|z2|z2|z2|
z2|z2|z2|z2|
z2|z2|z2|z2|
z2|z2|z2|z2|
z2|z2|z2|z2|
z2|z2|z2|z2|
z2|z2|z2|z2|
z2|z2|z2|z2|
zz/2
L:1/8
M:1/4
K:C clef=F4
V:47
%%MIDI program 68
z2|z2|z2|z2|
z2|z2|z2|z2|
z2|z2|zz/2^D/2-|^D3/2G/2-|
G3/2^G/2-|^G3/2G/2-|G2-|G3/2^D/2-|
^D2-|^D3/2^A,/2-|^A,3/2C/2-|C3/2D/2-|
D2-|D2-|D3/2z/2|z2|
z2|z2|z2|z2|
z2|z2|z2|z2|
z2|z2|z2|z2|
z2|z2|z2|z2|
z2|z2|z2|z2|
z2|z2|z2|z2|
z2|z2|z2|z2|
z2|z2|z2|z2|
z2|z2|z2|z2|
z2|z2|z2|z2|
z2|z2|z2|z2|
z2|z2|z2|z2|
zz/2
L:1/8
M:1/4
K:C clef=F4
V:48
%%MIDI program 48
z2|z2|z2|z2|
z2|z2|z2|z2|
z2|z2|z2|z2|
z2|z2|z2|z2|
z2|z2|z2|z2|
z2|z2|z2|z2|
z2|zz/2D/2-|D3/2F/2-|F3/2^D/2-|
^D3/2^G/2-|^G3/2G/2-|G14/4|zz/2[D-]/2|
[D-]2|[D-]2|[D-]2|[D-]2|
[D-]2|[D-]2|[D-]2|[D-]2|
[D-]2|[D-]2|[D-]2|[D-]2|
[D-]2|[D-]2|[D-]2|[D-]2|
[D-]2|[D-]2|[D-]2|[D-]2|
[D-]2|[D-]2|[D-]2|[D]3/2[D-]/2|
[D-]2|[D]3/2[D-]/2|[D]3/2[D-^D-]/2|[D^D]3/2[D-G-]/2|
[DG]3/2[D-^G-]/2|[D^G]3/2[D-G-]/2|[DG]14/4|zz/2[D-F-]/2|
[DF]14/4|zz/2[D-^D-]/2|[D^D]3/2[D-]/2|[D]3/2^D/2-|
^D2-|^D2-|^D2-|^D14/4|
zz/2
L:1/8
M:1/4
K:C clef=F4
V:49
%%MIDI program 45
z2|z2|z2|z2|
z2|z2|z2|z2|
z2|z2|z2|z2|
z2|z2|z2|z2|
z2|z2|z2|z2|
z2|z2|z2|z2|
z2|z2|z2|z2|
z2|z2|z2|z2|
z2|z2|z2|zz/2^D/2-|
^D/2^D^D/2-|^D/2^D^D/2-|^D/2^D^D/2-|^D/2zz/2|
z2|z2|z2|z2|
z2|z2|z2|z2|
z2|z2|z2|z2|
z2|z2|z2|z2|
z2|z2|z2|z2|
z2|z2|z2|z2|
z2|z2|z2|z2|
z2|z2|z2|z2|
zz/2
L:1/8
M:1/4
K:C clef=F4
V:50
%%MIDI program 69
z2|z2|z2|z2|
z2|z2|z2|z2|
z2|z2|z2|z2|
z2|z2|z2|z2|
z2|z2|z2|z2|
z2|z2|z2|z2|
z2|z2|z2|z2|
z2|z2|z2|z2|
z2|z2|z2|z2|
z2|z2|z2|zz/2^G/2-|
^G2-^G/2|z/2^Gc/2-|c3/2^G/2-|^G3/2G/2-|
G3/2^D/2-|^D3/2G/2-|G2-|G3/2^D/2-|
^D2-|^D3/2^A,/2-|^A,3/2C/2-|C3/2D/2-|
D/2F,/2F,/2^A,/2-|^A,/2F,^A,/2-|^A,/2F,z/2|z2|
z2|z2|z2|z2|
z2|z2|z2|z2|
z2|z2|z2|z2|
z2|z2|z2|z2|
zz/2
L:1/8
M:1/4
K:C clef=F4
V:51
%%MIDI program 48
zz/2B,,,/2|B,,,2|zB,,,/2B,,,/2-|B,,,3/2z/2|
zB,,,/2B,,,/2-|B,,,B,,,/2B,,,/2-|B,,,z|zB,,,/2B,,,/2-|
B,,,3/2z/2|zB,,,/2B,,,/2-|B,,,3/2z/2|zB,,,/2B,,,/2-|
B,,,3/2z/2|zB,,,/2[B,,,-]/2|[B,,,][B,,,B,,,]/2[B,,,-]/2|[B,,,][B,,,B,,,]/2B,,,/2-|
B,,,3/2z/2|zB,,,/2B,,,/2-|B,,,3/2z/2|zB,,,/2B,,,/2-|
B,,,3/2z/2|zB,,,/2[B,,,-]/2|[B,,,][B,,,B,,,]/2B,,,/2-|B,,,B,,,/2B,,,/2-|
B,,,3/2z/2|zB,,,/2B,,,/2-|B,,,3/2z/2|zB,,,/2B,,,/2-|
B,,,3/2z/2|zB,,,/2B,,,/2-|B,,,B,,,/2B,,,/2-|B,,,[B,,,-]/2[B,,,-B,,,-]/2|
[B,,,B,,,]/2zz/2|zB,,,/2B,,,/2-|B,,,3/2z/2|zB,,,/2B,,,/2-|
B,,,3/2z/2|zB,,,/2B,,,/2-|B,,,B,,,/2B,,,/2-|B,,,B,,,/2B,,,/2-|
B,,,3/2z/2|zB,,,/2B,,,/2-|B,,,3/2z/2|zB,,,/2B,,,/2-|
B,,,3/2z/2|zB,,,/2B,,,/2-|B,,,3/2z/2|zB,,,/2B,,,/2-|
B,,,3/2z/2|zB,,,/2B,,,/2-|B,,,B,,,/2B,,,/2-|B,,,B,,,/2B,,,/2-|
B,,,3/2z/2|zB,,,/2B,,,/2-|B,,,3/2z/2|zB,,,/2B,,,/2-|
B,,,3/2z/2|zB,,,/2B,,,/2-|B,,,3/2z/2|zB,,,/2B,,,/2-|
B,,,3/2z/2|zB,,,/2B,,,/2-|B,,,B,,,/2B,,,/2-|B,,,B,,,/2B,,,/2-|
B,,,3/2z/2|zB,,,/2B,,,/2-|B,,,3/2z/2|zB,,,/2B,,,/2-|
B,,,3/2z/2|zB,,,/2B,,,/2|B,,,/2zz/2|z2|
zz/2
L:1/8
M:1/4
K:C clef=F4
V:52
%%MIDI program 0
z2|[B,-D,,]3/2[B,]/2|zE,,/2[E,,-A,-]/2|[E,,A,]3/2z/2|
zD,,/2[A,-D,,]/2|[A,-]/2[A,-D,,]/2[A,]/2[A,-E,,]/2|[A,]3/2[B,-D,,]15/32|[B,]/2[B,-D,,]/2[B,]/2E,,/2|
z/2D,,/2D,,/2E,,/2|z/2D,,/2E,,/2D,,/2|z/2E,,/2D,,/2E,,/2|z/2D,,/2z/2D,,/2|
z/2E,,/2D,,/2E,,/2|z/2D,,/2E,,/2D,,/2|z/2E,,/2D,,/2[B,-A,-E,,]/2|[B,-A,-]/2[B,-A,-D,,]/2[B,A,]/2E,,/2|
z/2D,,/2E,,/2D,,/2|z/2E,,/2D,,/2E,,/2|z/2D,,/2E,,/2D,,/2|z/2D,,/2z/2E,,/2|
z/2D,,/2D,,/2E,,/2|z/2D,,/2z/2E,,/2|z/2D,,/2D,,/2E,,/2|D,,/2E,,/2z/2[A,-D,,]/2|
[A,-]/2[A,-D,,]/2[A,D,,]/2E,,/2|z/2D,,/2E,,/2D,,/2|z/2D,,/2z/2E,,/2|z/2D,,/2z/2E,,/2|
z/2D,,/2E,,/2D,,/2|z/2E,,/2D,,/2E,,/2|z/2D,,/2E,,/2D,,/2|z/2D,,/2z/2[B,-E,,]/2|
[B,-]/2[B,-D,,]/2[B,E,,]/2D,,/2|z/2E,,/2D,,/2[B,-E,,]/2|[B,-]/2[B,-D,,]/2[B,E,,]/2D,,/2|z/2E,,/2D,,/2[B,-E,,]/2|
[B,-]/2[B,-D,,]/2[B,E,,]/2[B,-D,,]/2|[B,-]/2[B,-E,,]/2[B,]/2[A,-D,,]/2|[A,]3/2[B,-E,,]/2|[B,-D,,]/2[B,-E,,]/2[B,]/2D,,/2|
z/2E,,/2D,,/2[B,-E,,]/2|[B,-]/2[B,-D,,]/2[B,E,,]/2D,,/2|z/2E,,/2D,,/2E,,/2|z/2D,,/2E,,/2D,,/2|
z/2E,,/2D,,/2E,,/2|z/2D,,/2E,,/2D,,/2|z/2E,,/2D,,/2E,,/2|D,,/2E,,/2z/2[B,-A,-D,,]/2|
[B,-A,-]/2[B,-A,-E,,]/2[B,A,D,,]/2E,,/2|z/2D,,/2E,,/2D,,/2|z/2E,,/2D,,/2E,,/2|z/2D,,/2z/2E,,/2|
z/2D,,/2E,,/2D,,/2|z/2E,,/2z/2D,,/2|z/2E,,/2z/2D,,/2|z/2E,,/2z/2[B,-A,-D,,]/2|
[B,-A,-]/2[B,-A,-E,,]/2[B,A,D,,]/2E,,/2|z/2D,,/2E,,/2D,,/2|z/2E,,/2D,,/2E,,/2|z/2D,,/2E,,/2D,,/2|
z/2E,,/2D,,/2E,,/2|z/2D,,/2E,,/2D,,/2|z/2E,,/2D,,/2[B,-E,,]/2|[B,-]/2[B,-D,,]/2[B,E,,]/2[A,-D,,]/2|
[A,-]/2[A,-E,,]/2[A,D,,]/2E,,/2|z/2D,,/2E,,/2D,,/2|z/2E,,/2D,,/2[B,-E,,]/2|[B,-]/2[B,-D,,]/2[B,]/2[B,-A,-D,,]/2|
[B,-A,-]/2[B,-A,-E,,]/2[B,A,D,,]/2E,,/2|z/2D,,/2z/2E,,/2|z/2D,,/2z/2E,,/2|z2|
zz/2
L:1/8
M:1/4
K:C clef=F4
V:53
%%MIDI program 0
z2|C,,2|zz/2C,,/2-|C,,3/2z/2|
zz/2C,,/2-|C,,3/2C,,/2-|C,,3/2C,,/2-|C,,/2C,,^D,/2-|
^D,3/2z/2|z2|z2|z2|
z2|z2|z2|z2|
z2|z2|z2|zz/2^A,,/2-|
^A,,/2^A,,/4z/4^A,,/4z/4^A,,/2|z/2^A,,/2z/2^A,,/4^A,,/4|^A,,/4^A,,/4^A,,/4^A,,/4^A,,/2z/2|z/2^A,,^D,/2-|
^D,3/2z/2|z2|z2|z2|
z2|z2|z2|z2|
z2|z2|z2|z2|
z2|z2|z2|zz/2^G,,/2|
z/2^G,,/2^G,,/2^G,,/2-|^G,,/2^G,,/2^G,,/2^G,,/2|z/2^G,,/2z/2^G,,/2|z/2^G,,^D,/2-|
^D,/2^D,/2^D,/2^D,/2-|^D,/2^A,,^D,/2-|^D,/2^A,,^D,/2-|^D,/2^A,,^D,/2-|
^D,/2zz/2|zz/2D,/2-|D,3/2C,/2-|C,/2z^A,,/2-|
^A,,/2^A,,/2^A,,/2^A,,/2|z/2^A,,/2z/2^A,,/2|^A,,/2^A,,/4^A,,/4^A,,/2^A,,/2-|^A,,/2^A,,z/2|
z2|z2|z2|zz/2^D,/2-|
^D,3/2z/2|z/2^A,,^D,/2-|^D,3/2^D,/2-|^D,/2z^G,,/2-|
^G,,3/2z/2|z/2^G,,^A,,/2-|^A,,/2z^A,,/2|z/2^A,,^D,/2-|
^D,/2^A,,/4z/4^A,,/2^D,/2-|^D,/2^A,,^D,/2-|^D,/2^A,,^D,/2-|^D,/2^A,,^D,/2-|
^D,3/2


